assets/logos/icons/dropdown-arrows.svg

<svg height="24" viewBox="0 0 24 24" width="24" xmlns="http://www.w3.org/2000/svg"><path d="m15.75 14.25-3.75 3.75-3.75000003-3.75-1.5 1.5 5.25000003 5.25 5.25-5.25zm-3.75-8.25000003 3.75 3.75000002 1.5-1.50000001-5.25-5.25000002-5.25000003 5.25000002 1.50000001 1.50000001z" fill="#492f5c" fill-rule="evenodd"/></svg>

<svg xmlns="http://www.w3.org/2000/svg" xmlns:xlink="http://www.w3.org/1999/xlink" width="24" height="24" viewBox="0 0 24 24">
  <defs>
    <path id="dropdown-arrows-a" d="M15.75,14.25 L12,18 L8.24999997,14.25 L6.74999997,15.75 L12,21 L17.25,15.75 L15.75,14.25 Z M12,5.99999997 L15.75,9.74999999 L17.25,8.24999998 L12,2.99999996 L6.74999997,8.24999998 L8.24999998,9.74999999 L12,5.99999997 Z"/>
  </defs>
  <use fill="#492F5C" fill-rule="evenodd" xlink:href="#dropdown-arrows-a"/>
</svg>
